X: 14019
T: DOUG CREIGHTON'S
C: Bob McQuillen Jan'09
B: Bob's Note Book 14 #19
%R: reel
%D:2009
Z: 2020 John Chambers <jc:trillian.mit.edu>
M: C
L: 1/8
K: D
dB \
| A2FA BAde | fded BAdf | a2fd edBd | AdAF E2DE |
| FDFA BAde | fded BAdf | a2fd efdB | AFEF D2  :|
|: de \
| fafd BAde | fdBd A2FE | DFAd BAde | fafd e2de |
| fdBd ABde | fded B2AB | dBAF BAFD | EDEF D2  :|
%%begintext align
%% Recently, Doug
%% Creighton on Button Box, Ethan Allen-Watkins
%% on fiddle, and I on piano played a dance together
%% in Peterborough. Steve Zaken-Anderson was the
%% caller, and it was a great night. Doug and Ethan
%% were a wonderful matched pair, and I thought their
%% music was spectacular. Doug can really push those
%% buttons!
%%endtext

%%sep 1 1 500

%%sep 1 1 500

